styles/6/Numix/64/places/pink-folder-hdd.svg

<?xml version="1.0" encoding="UTF-8" standalone="no"?>
<!-- Created with Inkscape (http://www.inkscape.org/) -->

<svg
   xmlns:dc="http://purl.org/dc/elements/1.1/"
   xmlns:cc="http://creativecommons.org/ns#"
   xmlns:rdf="http://www.w3.org/1999/02/22-rdf-syntax-ns#"
   xmlns:svg="http://www.w3.org/2000/svg"
   xmlns="http://www.w3.org/2000/svg"
   xmlns:xlink="http://www.w3.org/1999/xlink"
   xmlns:sodipodi="http://sodipodi.sourceforge.net/DTD/sodipodi-0.dtd"
   xmlns:inkscape="http://www.inkscape.org/namespaces/inkscape"
   width="64"
   height="64"
   id="svg2"
   version="1.1"
   inkscape:version="0.91 r"
   sodipodi:docname="pink-folder-hdd.svg"
   inkscape:export-filename="/media/Data/Main/Visuals/Icons/Numix/Desktop/repos/numix-wiki/Gjorgi/Numix-folders/48/New/folder-144.png"
   inkscape:export-xdpi="270"
   inkscape:export-ydpi="270">
  <defs
     id="defs4">
    <linearGradient
       inkscape:collect="always"
       id="linearGradient3958">
      <stop
         style="stop-color:#000000;stop-opacity:1;"
         offset="0"
         id="stop3960" />
      <stop
         style="stop-color:#000000;stop-opacity:0;"
         offset="1"
         id="stop3962" />
    </linearGradient>
    <radialGradient
       inkscape:collect="always"
       xlink:href="#linearGradient3958"
       id="radialGradient3964"
       cx="32.5"
       cy="56.5"
       fx="32.5"
       fy="56.5"
       r="33.5"
       gradientTransform="matrix(1,0,0,0.10447761,0,50.597015)"
       gradientUnits="userSpaceOnUse" />
  </defs>
  <sodipodi:namedview
     id="base"
     pagecolor="#ffffff"
     bordercolor="#666666"
     borderopacity="1.0"
     inkscape:pageopacity="0.0"
     inkscape:pageshadow="2"
     inkscape:zoom="10.551073"
     inkscape:cx="14.463083"
     inkscape:cy="19.98493"
     inkscape:document-units="px"
     inkscape:current-layer="layer1"
     showgrid="true"
     inkscape:window-width="1280"
     inkscape:window-height="998"
     inkscape:window-x="0"
     inkscape:window-y="0"
     inkscape:window-maximized="1"
     showguides="true"
     inkscape:guide-bbox="true">
    <inkscape:grid
       type="xygrid"
       id="grid2985"
       empspacing="5"
       visible="true"
       enabled="true"
       snapvisiblegridlinesonly="true" />
  </sodipodi:namedview>
  <metadata
     id="metadata7">
    <rdf:RDF>
      <cc:Work
         rdf:about="">
        <dc:format>image/svg+xml</dc:format>
        <dc:type
           rdf:resource="http://purl.org/dc/dcmitype/StillImage" />
        <dc:title />
      </cc:Work>
    </rdf:RDF>
  </metadata>
  <g
     inkscape:label="Layer 1"
     inkscape:groupmode="layer"
     id="layer1"
     transform="translate(0,-988.3622)">
    <path
       sodipodi:type="arc"
       style="opacity:0.6;fill:url(#radialGradient3964);fill-opacity:1;stroke:none"
       id="path3956"
       sodipodi:cx="32.5"
       sodipodi:cy="56.5"
       sodipodi:rx="33.5"
       sodipodi:ry="3.5"
       d="M 66,56.5 C 66,58.432997 51.001539,60 32.5,60 13.998461,60 -1,58.432997 -1,56.5 -1,54.567003 13.998461,53 32.5,53 51.001539,53 66,54.567003 66,56.5 z"
       transform="matrix(1.1343284,0,0,1.1428571,-4.8656716,979.79077)" />
    <path
       sodipodi:nodetypes="ccccccccc"
       inkscape:connector-curvature="0"
       id="path3029"
       d="m 0,997.42103 0,42.82347 64,0 0,-21.4117 -3.047619,-18.353 L 37,1000.3622 l -3,-6 -30.952381,0 C 1.52381,994.3622 0,995.89161 0,997.42103 z"
       style="fill:#ec407a;fill-opacity:1;stroke:none" />
    <rect
       style="fill:#fffdf0;fill-opacity:1;stroke:none"
       id="rect3799"
       width="31.571428"
       height="11.882284"
       x="5"
       y="1002.3622" />
    <path
       style="fill:#000000;fill-opacity:1;stroke:none;opacity:0.03"
       d="M 3.0625,6 C 1.538691,6 0,7.53308 0,9.0625 l 0,2 C 0,9.53308 1.538691,8 3.0625,8 L 33,8 36,14 60.9375,14.125 64,32.46875 l 0,-2 L 60.9375,12.125 37,12 34,6 z"
       transform="translate(0,988.3622)"
       id="path3790"
       inkscape:connector-curvature="0"
       sodipodi:nodetypes="sscsccccccccs" />
    <path
       style="fill:#f06292;fill-opacity:1;stroke:none"
       d="m 64,1003.5387 0,42.8235 -64,0 0,-40 30,0 3,-6 27.952381,0.1176 c 1.523809,0 3.047619,1.5295 3.047619,3.0589 z"
       id="rect2987"
       inkscape:connector-curvature="0"
       sodipodi:nodetypes="cccccccc" />
    <path
       sodipodi:nodetypes="ccccc"
       id="path3794"
       d="m 0,1044.3622 0,2 64,0 0,-2 z"
       style="opacity:0.15;fill:#000000;fill-opacity:1;stroke:none"
       inkscape:connector-curvature="0" />
    <path
       style="fill:#000000;fill-opacity:1;stroke:none;opacity:0.03"
       d="m 33,12 -3,6 -30,0 0,2 31,0 3,-6 26.9375,0.125 c 1.523809,0 3.0625,1.5331 3.0625,3.0625 l 0,-2 C 64,13.6581 62.461309,12.125 60.9375,12.125 z"
       id="path3015"
       inkscape:connector-curvature="0"
       sodipodi:nodetypes="ccccccccscc"
       transform="translate(0,988.3622)" />
    <path
       style="opacity:1.0;fill:#c64077;fill-opacity:1;stroke:none"
       d="M 24 26 C 22.57543 26 22 26.6704 22 28 L 22 48 C 22 49.3296 22.57543 50 24 50 L 39.4375 50 C 40.862072 50 42 49.3296 42 48 L 42 28 C 42 26.6704 41.424572 26 40 26 L 24 26 z M 25.5 28 C 26.328427 28 27 28.671573 27 29.5 C 27 30.328427 26.328427 31 25.5 31 C 24.671573 31 24 30.328427 24 29.5 C 24 28.671573 24.671573 28 25.5 28 z M 38.5 28 C 39.328427 28 40 28.671573 40 29.5 C 40 30.328427 39.328427 31 38.5 31 C 37.671573 31 37 30.328427 37 29.5 C 37 28.671573 37.671573 28 38.5 28 z M 32 30 C 34.209138 30 36 31.7908 36 34 C 36 36.2092 34.209138 38 32 38 C 29.790862 38 28 36.2092 28 34 C 28 31.7908 29.790862 30 32 30 z M 25.5 37 C 26.328427 37 27 37.671573 27 38.5 C 27 39.328427 26.328427 40 25.5 40 C 24.671573 40 24 39.328427 24 38.5 C 24 37.671573 24.671573 37 25.5 37 z M 38.5 37 C 39.328427 37 40 37.671573 40 38.5 C 40 39.328427 39.328427 40 38.5 40 C 37.671573 40 37 39.328427 37 38.5 C 37 37.671573 37.671573 37 38.5 37 z M 25 46 L 39 46 C 39.554 46 40 46.446 40 47 C 40 47.554 39.554 48 39 48 L 25 48 C 24.446 48 24 47.554 24 47 C 24 46.446 24.446 46 25 46 z "
       transform="translate(0,988.3622)"
       id="rect3828" />
    <path
       sodipodi:type="arc"
       style="fill:#c64077;fill-opacity:1;fill-rule:evenodd;stroke:none;opacity:1.0"
       id="path2995"
       sodipodi:cx="32"
       sodipodi:cy="34"
       sodipodi:rx="2"
       sodipodi:ry="2"
       d="m 34,34 a 2,2 0 1 1 -4,0 2,2 0 1 1 4,0 z"
       transform="translate(0,988.3622)" />
  </g>
</svg>

<!-- Created with Inkscape (http://www.inkscape.org/) -->
<svg xmlns="http://www.w3.org/2000/svg" viewBox="0 0 64 64">
 <defs>
  <radialGradient id="radialGradient3964" cx="32.5" cy="56.5" r="33.5" gradientTransform="matrix(1,0,0,0.10447761,0,50.597015)" gradientUnits="userSpaceOnUse">
   <stop style="stop-color:#000;stop-opacity:1"/>
   <stop offset="1" style="stop-color:#000;stop-opacity:0"/>
  </radialGradient>
 </defs>
 <g transform="translate(0,-988.3622)">
  <path d="m 66 56.5 c 0 1.933 -14.998 3.5 -33.5 3.5 -18.502 0 -33.5 -1.567 -33.5 -3.5 0 -1.933 14.998 -3.5 33.5 -3.5 18.502 0 33.5 1.567 33.5 3.5 z" transform="matrix(1.1343284,0,0,1.1428571,-4.8656716,979.79077)" style="fill:url(#radialGradient3964);opacity:0.6;fill-opacity:1;stroke:none"/>
  <path d="m 0 997.42 0 42.823 64 0 0 -21.412 -3.048 -18.353 l -23.952 -0.118 l -3 -6 -30.952 0 c -1.524 0 -3.048 1.529 -3.048 3.059 z" style="fill:#ec407a;fill-opacity:1;stroke:none"/>
  <rect width="31.571" height="11.882" x="5" y="1002.36" style="fill:#fffdf0;fill-opacity:1;stroke:none"/>
  <path d="M 3.0625,6 C 1.538691,6 0,7.53308 0,9.0625 l 0,2 C 0,9.53308 1.538691,8 3.0625,8 L 33,8 36,14 60.9375,14.125 64,32.46875 l 0,-2 L 60.9375,12.125 37,12 34,6 z" transform="translate(0,988.3622)" style="fill:#000;opacity:0.03;fill-opacity:1;stroke:none"/>
  <path d="m 64 1003.54 0 42.824 -64 0 0 -40 30 0 3 -6 27.952 0.118 c 1.524 0 3.048 1.529 3.048 3.059 z" style="fill:#f06292;fill-opacity:1;stroke:none"/>
  <path d="m 0 1044.36 0 2 64 0 0 -2 z" style="fill:#000;opacity:0.15;fill-opacity:1;stroke:none"/>
  <path d="m 33 12 -3 6 -30 0 0 2 31 0 3 -6 26.938 0.125 c 1.524 0 3.063 1.533 3.063 3.063 l 0 -2 c 0 -1.529 -1.539 -3.063 -3.063 -3.063 z" transform="translate(0,988.3622)" style="fill:#000;opacity:0.03;fill-opacity:1;stroke:none"/>
  <path d="m 24 26 c -1.425 0 -2 0.67 -2 2 l 0 20 c 0 1.33 0.575 2 2 2 l 15.438 0 c 1.425 0 2.563 -0.67 2.563 -2 l 0 -20 c 0 -1.33 -0.575 -2 -2 -2 l -16 0 z m 1.5 2 c 0.828 0 1.5 0.672 1.5 1.5 c 0 0.828 -0.672 1.5 -1.5 1.5 c -0.828 0 -1.5 -0.672 -1.5 -1.5 c 0 -0.828 0.672 -1.5 1.5 -1.5 z m 13 0 c 0.828 0 1.5 0.672 1.5 1.5 c 0 0.828 -0.672 1.5 -1.5 1.5 c -0.828 0 -1.5 -0.672 -1.5 -1.5 c 0 -0.828 0.672 -1.5 1.5 -1.5 z m -6.5 2 c 2.209 0 4 1.791 4 4 c 0 2.209 -1.791 4 -4 4 c -2.209 0 -4 -1.791 -4 -4 c 0 -2.209 1.791 -4 4 -4 z m -6.5 7 c 0.828 0 1.5 0.672 1.5 1.5 c 0 0.828 -0.672 1.5 -1.5 1.5 c -0.828 0 -1.5 -0.672 -1.5 -1.5 c 0 -0.828 0.672 -1.5 1.5 -1.5 z m 13 0 c 0.828 0 1.5 0.672 1.5 1.5 c 0 0.828 -0.672 1.5 -1.5 1.5 c -0.828 0 -1.5 -0.672 -1.5 -1.5 c 0 -0.828 0.672 -1.5 1.5 -1.5 z m -13.5 9 l 14 0 c 0.554 0 1 0.446 1 1 c 0 0.554 -0.446 1 -1 1 l -14 0 c -0.554 0 -1 -0.446 -1 -1 c 0 -0.554 0.446 -1 1 -1 z" transform="translate(0,988.3622)" style="fill:#c64077;opacity:1;fill-opacity:1;stroke:none"/>
  <path d="m 34 34 a 2 2 0 1 1 -4 0 2 2 0 1 1 4 0 z" transform="translate(0,988.3622)" style="fill:#c64077;opacity:1;fill-opacity:1;stroke:none;fill-rule:evenodd"/>
 </g>
</svg>
